X:149 
T:Nonie Stacking Turf* (polka)  
B:CRE4.081 (gan ainm)
F:file ID: cre.4/149nonie
B:CRE4.081: gan ainm
L:1/8
M:2/4
%Q:120
R:polka
K:Am
AB/A/ GE|c>d ed|cA GE|G2 GE|
AB/A/ GE|c>d ed|cA BG|A2 A2:|
|:ea ag|e>d ed|cd e^f|g2 ^fg|
[1 e>a ag|e>d ed|c>A BG|A2 A2:|
[2 a^f ge|^fd ed|c>A BG|A2 A2 |]

%%%

